nova/resources/svg/fluent/class.svg

<svg width="24" height="24" viewBox="0 0 24 24" fill="none" xmlns="http://www.w3.org/2000/svg">
<path d="M17.2501 2.00052C18.7689 2.00052 20.0001 3.23173 20.0001 4.75052V19.2488C20.0001 20.7675 18.7689 21.9988 17.2501 21.9988H6.75C5.23122 21.9988 4 20.7675 4 19.2488V4.75052C4 3.49158 4.84596 2.43023 6.00044 2.10391L5.99963 3.75071C5.69623 3.97877 5.5 4.34173 5.5 4.75052V19.2488C5.5 19.9391 6.05964 20.4988 6.75 20.4988H17.2501C17.9405 20.4988 18.5001 19.9391 18.5001 19.2488V4.75052C18.5001 4.06016 17.9405 3.50052 17.2501 3.50052L15 3.5V2L17.2501 2.00052ZM14.0001 2V10.1389C14.0001 10.886 13.2007 11.1665 12.7109 10.9033L12.6279 10.8512L10.5019 9.56575L8.42379 10.8172C7.92411 11.1779 7.09342 10.9564 7.00736 10.2594L7.0001 10.1389V2H14.0001ZM12.5001 3.5H8.5001V9.02327L10.0734 8.07421C10.3377 7.93602 10.6574 7.93341 10.8906 8.05036L12.5001 9.02396V3.5Z" fill="currentColor"/>
</svg>

<svg viewBox="0 0 24 24" fill="none" xmlns="http://www.w3.org/2000/svg"><path d="M17.25 2A2.75 2.75 0 0120 4.75V19.25a2.75 2.75 0 01-2.75 2.75H6.75A2.75 2.75 0 014 19.249V4.75c0-1.26.846-2.32 2-2.647V3.75c-.304.228-.5.59-.5 1v14.498c0 .69.56 1.25 1.25 1.25h10.5c.69 0 1.25-.56 1.25-1.25V4.75c0-.69-.56-1.25-1.25-1.25L15 3.5V2h2.25zM14 2v8.139c0 .747-.8 1.027-1.29.764l-.082-.052-2.126-1.285-2.078 1.251c-.5.36-1.33.14-1.417-.558L7 10.14V2h7zm-1.5 1.5h-4v5.523l1.573-.949a.923.923 0 01.818-.024l1.61.974V3.5z" fill="currentColor"/></svg>
